X:1
T:Deux Amis Cotillion. TWC.251, Les
T:Deux Amis Cotillion. TWC.251, Les
T:French
C:French
L:1/8
Q:1/4=100
M:6/8
K:G
V:1 treble 
V:1
 d3 B3 | GAB A3 | c2 B ABG | F2 G A2 D | d3 B3 | GAB A3 | c2 B ABG | AGF G3 || ded g2 g | ded b3 | %10
 bag fed | c2 d e2 A | d^cd ede | fef g3 | fga Bgf | ed^c d3!D.C.! |] %16

